X: 118
T: No_204_Song_for_a_Sick_Baby.krn
N: Derived from No_204_Song_for_a_Sick_Baby.krn
%%abc-version 2.0
%%abcx-abcm2ps-target-version 5.9.1 (29 Sep 2008)
%%abc-creator hum2abc beta
%%abcx-conversion-date 2019/03/15 08:38:45
%%humdrum-veritas 3222889413
%%humdrum-veritas-data 3347045427
%%linebreak <none>
%%barnumbers 0
L: 1/8
M: 3/4
K: Db clef=treble
[K:clef=treble][M:3/4]z4D2 ]|:  
F4-FA ||  
[M:2/4]F3/E/D2 | 
D zD2 ||  
[M:3/4]E4DF ||  
[M:2/4](3EDB, B,/B,/ z | 
z2B,2 ||  
[M:3/4]D2DDz2 ||  
[M:2/4]D2B,2 ||  
[M:3/4]D3/D/D2B,3/B,/ ||  
[M:2/4]D2D2 | 
D2B,2 | 
D3/D/D2 | 
D2DD | 
z2D2 :|]  



